X:1
T:Longfellow, 86.86.88
T:Longfellow, 86.86.88
T:Frederic Field Bullard (1864-1904)
T:Public Domain Courtesy of the Cyber Hymnal™
C:Frederic Field Bullard (1864-1904)
Z:Public Domain
Z:Courtesy of the Cyber Hymnal™
%%score ( 1 2 ) 3
L:1/8
Q:1/4=115
M:4/4
K:Eb
V:1 treble 
V:2 treble 
V:3 bass 
V:1
 [EG]2 | [EG]3 [DF] [DF]2 [FA]2 | [FA]3 [EG] [EG]2 [EG]2 | [EB]3 [EG] E2 [DF]2 | [EG]6 [GB]2 | %5
 [GB]3 [FA] [FA]2 [Ac]2 | [Ac]3 [GB] [EG]2 [EB]2 | [Fd]3 B [=Ac]2 [FA]2 | [FB]6 [DB]2 | %9
 [E=A]2 [F_A]2 G2 [Ge]2 | [Ad]3 [Dc] [EB]2 [EG]2 | [EB]3 [EG] E2 [EG]2 | [DF]3 E E2 |] %13
V:2
 x2 | x8 | x8 | x4 E2 x2 | x8 | x8 | x8 | x3 B x4 | x8 | x4 G2 x2 | x8 | x4 E2 x2 | x3 E E2 |] %13
V:3
 [E,B,]2 | [E,B,]3 [B,,B,] [B,,B,]2 [D,B,]2 | [E,B,]3 [E,B,] [E,B,]2 [E,B,]2 | %3
 [B,,G,]3 [B,,B,] [B,,G,]2 [B,,B,]2 | [E,B,]6 [E,B,]2 | [E,C]3 [E,C] [E,C]2 [E,D]2 | %6
 [E,E]3 [E,E] [E,B,]2 [G,B,]2 | [F,B,]3 [F,D] [F,E]2 [F,E]2 | [B,D]6 [B,,B,]2 | %9
 [C,B,]2 [D,B,]2 [E,B,]2 [E,B,]2 | [F,B,]3 [A,B,] [G,B,]2 [E,B,]2 | %11
 [B,,G,]3 [B,,B,] [B,,G,]2 [B,,B,]2 | [B,,A,]3 [E,G,] [E,G,]2 |] %13

